src/assets/svg/icons/fa/nuevos/classic/light/lock classic light.svg

<svg xmlns="http://www.w3.org/2000/svg" viewBox="0 0 448 512"><!--! Font Awesome Pro 6.4.0 by @fontawesome - https://fontawesome.com License - https://fontawesome.com/license (Commercial License) Copyright 2023 Fonticons, Inc. --><path d="M128 128v64H320V128c0-53-43-96-96-96s-96 43-96 96zM96 192V128C96 57.3 153.3 0 224 0s128 57.3 128 128v64h16c44.2 0 80 35.8 80 80V432c0 44.2-35.8 80-80 80H80c-44.2 0-80-35.8-80-80V272c0-44.2 35.8-80 80-80H96zM32 272V432c0 26.5 21.5 48 48 48H368c26.5 0 48-21.5 48-48V272c0-26.5-21.5-48-48-48H80c-26.5 0-48 21.5-48 48z"/></svg>

<svg xmlns="http://www.w3.org/2000/svg" viewBox="0 0 448 512"><path d="M96 192V128C96 57.31 153.3 0 224 0C294.7 0 352 57.31 352 128V192H368C412.2 192 448 227.8 448 272V432C448 476.2 412.2 512 368 512H80C35.82 512 0 476.2 0 432V272C0 227.8 35.82 192 80 192H96zM128 192H320V128C320 74.98 277 32 224 32C170.1 32 128 74.98 128 128V192zM32 432C32 458.5 53.49 480 80 480H368C394.5 480 416 458.5 416 432V272C416 245.5 394.5 224 368 224H80C53.49 224 32 245.5 32 272V432z"/></svg>
